build/img/icon-2.svg

<svg width="14" height="14" viewBox="0 0 14 14" fill="none" xmlns="http://www.w3.org/2000/svg">
<path fill-rule="evenodd" clip-rule="evenodd" d="M13.3996 6.99123C13.3996 7.42404 13.3555 7.85626 13.269 8.27758C13.1846 8.68888 13.0596 9.09268 12.8958 9.4787C12.7359 9.85789 12.5374 10.2233 12.3055 10.5641C12.0771 10.9027 11.8139 11.2204 11.5248 11.5099C11.2351 11.7983 10.9164 12.0607 10.5779 12.2901C10.236 12.5204 9.87011 12.7186 9.49069 12.8793C9.10412 13.0422 8.69938 13.167 8.28843 13.2513C7.86656 13.338 7.43277 13.3823 6.99932 13.3823C6.56555 13.3823 6.13178 13.338 5.71051 13.2513C5.29894 13.167 4.89422 13.0422 4.50795 12.8793C4.12856 12.7186 3.76228 12.5204 3.42039 12.2901C3.08194 12.0607 2.76317 11.7983 2.47409 11.5099C2.18471 11.2204 1.92156 10.9027 1.6928 10.5641C1.46216 10.2233 1.26339 9.85787 1.10277 9.4787C0.93899 9.09268 0.813689 8.68886 0.728994 8.27758C0.643372 7.85626 0.599609 7.42404 0.599609 6.99123C0.599609 6.55808 0.643347 6.12494 0.729019 5.70455C0.813714 5.29324 0.939015 4.88882 1.10279 4.50342C1.26342 4.12396 1.46219 3.75823 1.69283 3.41744C1.92159 3.07854 2.18474 2.76147 2.47412 2.47155C2.7632 2.18319 3.08196 1.92139 3.42042 1.69234C3.7623 1.46108 4.12859 1.26295 4.50797 1.10191C4.89425 0.938663 5.29894 0.813543 5.71054 0.729921C6.13181 0.643797 6.56558 0.600098 6.99935 0.600098C7.43279 0.600098 7.86656 0.643797 8.28846 0.729921C8.69941 0.813568 9.10412 0.938689 9.49072 1.10191C9.87011 1.26292 10.2361 1.46108 10.5779 1.69234C10.9164 1.92139 11.2352 2.18319 11.5249 2.47155C11.814 2.76147 12.0771 3.07854 12.3055 3.41744C12.5374 3.75823 12.7359 4.12398 12.8958 4.50342C13.0596 4.88882 13.1846 5.29324 13.269 5.70455C13.3555 6.12494 13.3996 6.55808 13.3996 6.99123ZM4.6673 2.05463C3.14314 2.77334 2.00558 4.17575 1.65087 5.86591C1.79496 5.86716 4.07258 5.89587 6.69677 5.19963C5.7508 3.52133 4.74012 2.15171 4.6673 2.05463ZM7.1496 6.04006C4.33541 6.88136 1.63494 6.82082 1.53807 6.8171C1.53649 6.87575 1.53369 6.93254 1.53369 6.99122C1.53369 8.39331 2.0634 9.67153 2.93407 10.638C2.93219 10.6352 4.42792 7.98546 7.37743 7.03304C7.44867 7.00933 7.52119 6.98809 7.59306 6.96751C7.45589 6.65733 7.30616 6.34651 7.1496 6.04006ZM10.6089 2.89504C9.64661 2.04776 8.38313 1.53382 6.9993 1.53382C6.55521 1.53382 6.12425 1.5875 5.71142 1.68673C5.79328 1.79659 6.81992 3.15656 7.75464 4.8704C9.81695 4.09837 10.5954 2.915 10.6089 2.89504ZM7.96563 7.87187C7.95345 7.8759 7.94128 7.87937 7.92938 7.88373C4.70458 9.00632 3.65148 11.2687 3.64008 11.2934C4.56796 12.0139 5.73177 12.4486 6.99934 12.4486C7.75623 12.4486 8.4772 12.2947 9.13317 12.0161C9.05223 11.5393 8.73472 9.86785 7.96563 7.87187ZM10.0535 11.5174C11.2808 10.6905 12.1524 9.37729 12.3955 7.85624C12.283 7.82004 10.7539 7.33664 8.98969 7.61908C9.7066 9.58636 9.99789 11.1885 10.0535 11.5174ZM8.17534 5.68366C8.30219 5.94393 8.42504 6.20883 8.53846 6.47505C8.57879 6.57056 8.61817 6.66418 8.6566 6.75779C10.5342 6.52185 12.384 6.9188 12.4631 6.93501C12.4506 5.64121 11.9871 4.45379 11.2202 3.52416C11.2099 3.5388 10.3333 4.80361 8.17534 5.68366Z" fill="white"/>
</svg>

<svg width="14" height="14" fill="none" xmlns="http://www.w3.org/2000/svg"><path fill-rule="evenodd" clip-rule="evenodd" d="M13.4 6.991a6.405 6.405 0 01-.504 2.488 6.436 6.436 0 01-2.318 2.811c-.342.23-.708.429-1.087.59a6.43 6.43 0 01-4.983 0 6.465 6.465 0 01-1.088-.59 6.445 6.445 0 01-2.318-2.81A6.37 6.37 0 01.73 5.705a6.355 6.355 0 01.964-2.288A6.453 6.453 0 013.42 1.692 6.337 6.337 0 015.71.73a6.45 6.45 0 013.78.372 6.418 6.418 0 012.816 2.315A6.33 6.33 0 0113.4 6.991zM4.667 2.055a5.466 5.466 0 00-3.016 3.81c.144.002 2.422.03 5.046-.665a32.862 32.862 0 00-2.03-3.145zM7.15 6.04c-2.815.841-5.515.78-5.612.777-.002.059-.004.116-.004.174 0 1.402.53 2.68 1.4 3.647-.002-.003 1.494-2.653 4.443-3.605.072-.024.144-.045.216-.065a19.12 19.12 0 00-.443-.928zm3.459-3.145a5.444 5.444 0 00-3.61-1.361c-.444 0-.875.053-1.288.153.082.11 1.109 1.47 2.044 3.183 2.062-.772 2.84-1.955 2.854-1.975zM7.966 7.872c-.013.004-.025.007-.037.012-3.224 1.122-4.278 3.385-4.289 3.41a5.46 5.46 0 005.493.722 22.696 22.696 0 00-1.167-4.144zm2.087 3.645a5.458 5.458 0 002.342-3.66 7.94 7.94 0 00-3.405-.238 23.593 23.593 0 011.063 3.898zM8.175 5.684a17.209 17.209 0 01.482 1.074c1.877-.236 3.727.16 3.806.177a5.425 5.425 0 00-1.243-3.41c-.01.014-.887 1.279-3.045 2.159z" fill="#fff"/></svg>
